X:1
T:Chihuahua, 76.76.66.76
T:Chihuahua, 76.76.66.76
T:Theodore Edson Perkins, 1875
T:Public Domain Courtesy of the Cyber Hymnal™
C:Theodore Edson Perkins, 1875
Z:Public Domain
Z:Courtesy of the Cyber Hymnal™
%%score ( 1 2 ) ( 3 4 )
L:1/8
Q:1/4=95
M:6/8
K:F
V:1 treble 
V:2 treble 
V:3 bass 
V:4 bass 
V:1
 F2 F ([EG]>[FA])[EB] | [Fc]2 [Ec] [Fc]3 | [Fd]2 [Fc] ([FA]>[EG])F | [EG]2 [FA] [EG]3 | %4
 F2 F ([EG]>[FA])[EB] | [Fc]2 [Ec] [Fc]3 | (G>A)[F=B] [Ec]2 [Gc] | [Fd]3 [Ec]3 | [FA]2 [GB] [Ac]3 | %9
 [FB]2 [Fc] [Fd]3 | (c>A)[Fd] (c>A)F | [EG]2 [FA] [EG]3 | F2 F ([EG]>[FA])[EB] | [Fc]2 [Ec] [Fc]3 | %14
 [Fc]2 [Fd] (c>A)F | ([EG]3 F3) |] %16
V:2
 F2 F x3 | x6 | x5 F | x6 | F2 F x3 | x6 | F2 x4 | x6 | x6 | x6 | F2 F2 F x | x6 | F2 F x3 | x6 | %14
 x3 F2 F | x3 F3 |] %16
V:3
 [F,A,]2 [A,C] C2 [G,C] | [F,A,]2 [G,B,] [A,C]3 | B,2 [A,C] ([F,C]>[C,B,])[D,A,] | [C,C]3 (C2 B,) | %4
 [F,A,]2 [A,C] C2 [G,C] | [F,A,]2 [G,B,] [A,C]3 | (=B,>C)[G,D] [A,C]2 [E,C] | %7
 ([F,A,]2 [G,=B,]) [C,C]3 | [F,C]2 [F,C] C3 | [D,B,]2 [C,A,] [B,,B,]3 | %10
 (A,>C)[F,B,] [F,A,]2 [D,=B,] | [C,C]3 [C,C]3 | [F,A,]2 [A,C] C2 [G,C] | [F,A,]2 [G,B,] [A,C]3 | %14
 [F,A,]2 [B,,B,] [C,A,]2 [C,A,] | [C,B,]3 [F,A,]3 |] %16
V:4
 x3 (B,>A,) x | x6 | B,2 x4 | x3 C,3 | x3 (B,>A,) x | x6 | G,2 x4 | x6 | x3 (F,2 _E,) | x6 | %10
 F,2 x4 | x6 | x3 (B,>A,) x | x6 | x6 | x6 |] %16

